svg/logo/whatsapp_fill.svg

<?xml version="1.0" encoding="UTF-8"?>
<svg width="24px" height="24px" viewBox="0 0 24 24" version="1.1" xmlns="http://www.w3.org/2000/svg" xmlns:xlink="http://www.w3.org/1999/xlink">
    <title>whatsapp_fill</title>
    <g id="页面-1" stroke="none" stroke-width="1" fill="none" fill-rule="evenodd">
        <g id="Brand" transform="translate(-864.000000, -48.000000)">
            <g id="whatsapp_fill" transform="translate(864.000000, 48.000000)">
                 <path d="M24,0 L24,24 L0,24 L0,0 L24,0 Z M12.5934901,23.257841 L12.5819402,23.2595131 L12.5108777,23.2950439 L12.4918791,23.2987469 L12.4918791,23.2987469 L12.4767152,23.2950439 L12.4056548,23.2595131 C12.3958229,23.2563662 12.3870493,23.2590235 12.3821421,23.2649074 L12.3780323,23.275831 L12.360941,23.7031097 L12.3658947,23.7234994 L12.3769048,23.7357139 L12.4804777,23.8096931 L12.4953491,23.8136134 L12.4953491,23.8136134 L12.5071152,23.8096931 L12.6106902,23.7357139 L12.6232938,23.7196733 L12.6232938,23.7196733 L12.6266527,23.7031097 L12.609561,23.275831 C12.6075724,23.2657013 12.6010112,23.2592993 12.5934901,23.257841 L12.5934901,23.257841 Z M12.8583906,23.1452862 L12.8445485,23.1473072 L12.6598443,23.2396597 L12.6498822,23.2499052 L12.6498822,23.2499052 L12.6471943,23.2611114 L12.6650943,23.6906389 L12.6699349,23.7034178 L12.6699349,23.7034178 L12.678386,23.7104931 L12.8793402,23.8032389 C12.8914285,23.8068999 12.9022333,23.8029875 12.9078286,23.7952264 L12.9118235,23.7811639 L12.8776777,23.1665331 C12.8752882,23.1545897 12.8674102,23.1470016 12.8583906,23.1452862 L12.8583906,23.1452862 Z M12.1430473,23.1473072 C12.1332178,23.1423925 12.1221763,23.1452606 12.1156365,23.1525954 L12.1099173,23.1665331 L12.0757714,23.7811639 C12.0751323,23.7926639 12.0828099,23.8018602 12.0926481,23.8045676 L12.108256,23.8032389 L12.3092106,23.7104931 L12.3186497,23.7024347 L12.3186497,23.7024347 L12.3225043,23.6906389 L12.340401,23.2611114 L12.337245,23.2485176 L12.337245,23.2485176 L12.3277531,23.2396597 L12.1430473,23.1473072 Z" id="MingCute" fill-rule="nonzero"></path>
                <path d="M12,2 C6.47715,2 2,6.47715 2,12 C2,13.8896 2.52505,15.6594 3.43756,17.1683 L2.54581,20.2002 C2.32023,20.9672 3.03284,21.6798 3.79975,21.4542 L6.83171,20.5624 C8.34058,21.475 10.1104,22 12,22 C17.5228,22 22,17.5228 22,12 C22,6.47715 17.5228,2 12,2 Z M9.73821,14.2627 C11.7607,16.2852 13.692,16.5518 14.3739,16.5769 C15.4111,16.6151 16.421,15.823 16.8147,14.9042 C16.9112,14.6792 16.8871,14.4085 16.7255,14.2014 C16.1782,13.5005 15.4373,12.9983 14.7134,12.4984 C14.4006,12.282 13.9705,12.349 13.7401,12.6555 L13.1394,13.5706 C13.0727,13.6721 12.9402,13.707 12.8348,13.6467 C12.4283,13.4143 11.8356,13.018 11.4092,12.5916 C10.9833,12.1657 10.6111,11.5998 10.4022,11.2195 C10.3473,11.1195 10.3777,10.996 10.4692,10.928 L11.3927,10.2422 C11.6681,10.0038 11.7165,9.59887 11.5138,9.30228 C11.065,8.64569 10.5422,7.8112 9.7855,7.25926 C9.57883,7.1085 9.3174,7.09158 9.10155,7.18408 C8.1817,7.5783 7.38574,8.58789 7.42398,9.62695 C7.44908,10.3089 7.71572,12.2402 9.73821,14.2627 Z" id="形状" fill="#09244B"></path>
            </g>
        </g>
    </g>
</svg>

<svg xmlns="http://www.w3.org/2000/svg" width="24" height="24"><g fill="none" fill-rule="evenodd"><path d="M24 0v24H0V0h24ZM12.593 23.258l-.011.002-.071.035-.02.004-.014-.004-.071-.035c-.01-.004-.019-.001-.024.005l-.004.01-.017.428.005.02.01.013.104.074.015.004.012-.004.104-.074.012-.016.004-.017-.017-.427c-.002-.01-.009-.017-.017-.018Zm.265-.113-.013.002-.185.093-.01.01-.003.011.018.43.005.012.008.007.201.093c.012.004.023 0 .029-.008l.004-.014-.034-.614c-.003-.012-.01-.02-.02-.022Zm-.715.002a.023.023 0 0 0-.027.006l-.006.014-.034.614c0 .012.007.02.017.024l.015-.002.201-.093.01-.008.004-.011.017-.43-.003-.012-.01-.01-.184-.092Z"/><path fill="#09244B" d="M12 2C6.477 2 2 6.477 2 12c0 1.89.525 3.66 1.438 5.168L2.546 20.2A1.01 1.01 0 0 0 3.8 21.454l3.032-.892A9.957 9.957 0 0 0 12 22c5.523 0 10-4.477 10-10S17.523 2 12 2ZM9.738 14.263c2.023 2.022 3.954 2.289 4.636 2.314 1.037.038 2.047-.754 2.44-1.673a.696.696 0 0 0-.088-.703c-.548-.7-1.289-1.203-2.013-1.703a.711.711 0 0 0-.973.158l-.6.915a.229.229 0 0 1-.305.076c-.407-.233-1-.629-1.426-1.055-.426-.426-.798-.992-1.007-1.373a.227.227 0 0 1 .067-.291l.924-.686a.712.712 0 0 0 .12-.94c-.448-.656-.97-1.49-1.727-2.043a.695.695 0 0 0-.684-.075c-.92.394-1.716 1.404-1.678 2.443.025.682.292 2.613 2.314 4.636Z"/></g></svg>
